plugin/icons/svg/top panel/icon_top-panel-init-white-meterial.svg

<svg width="18" height="24" viewBox="0 0 18 24" fill="none" xmlns="http://www.w3.org/2000/svg">
<rect width="18" height="24" fill="#D1D1D1"/>
<path d="M4.79693 8.54309L4.5 8.67506V9V14.5V14.8249L4.79693 14.9569L9.29693 16.9569L9.5 17.0472L9.70307 16.9569L14.2031 14.9569L14.5 14.8249V14.5V9V8.67506L14.2031 8.54309L9.70307 6.54309L9.5 6.45284L9.29693 6.54309L4.79693 8.54309Z" stroke="#808080"/>
<path d="M14 9L9.5 11V16.5L14 14.5V9Z" fill="#949494"/>
<path d="M9.5 11V16.5L5 14.5V9L9.5 11Z" fill="#D1D1D1"/>
<path d="M9.5 11L5 9L9.5 7L14 9L9.5 11Z" fill="#E8E8E8"/>
</svg>

<?xml version="1.0" encoding="utf-8"?>
<!-- Generator: Adobe Illustrator 25.2.0, SVG Export Plug-In . SVG Version: 6.00 Build 0)  -->
<svg version="1.1" id="Layer_1" xmlns="http://www.w3.org/2000/svg" xmlns:xlink="http://www.w3.org/1999/xlink" x="0px" y="0px"
	 viewBox="0 0 18 24" style="enable-background:new 0 0 18 24;" xml:space="preserve">
<style type="text/css">
	.st0{display:none;fill:#D1D1D1;}
	.st1{fill:none;stroke:#808080;}
	.st2{fill:#949494;}
	.st3{fill:#D1D1D1;}
	.st4{fill:#E8E8E8;}
</style>
<rect class="st0" width="18" height="24"/>
<path class="st1" d="M4.8,8.5L4.5,8.7V9v5.5v0.3L4.8,15l4.5,2L9.5,17L9.7,17l4.5-2l0.3-0.1v-0.3V9V8.7l-0.3-0.1l-4.5-2L9.5,6.5
	L9.3,6.5L4.8,8.5z"/>
<path class="st2" d="M14,9l-4.5,2v5.5l4.5-2V9z"/>
<path class="st3" d="M9.5,11v5.5l-4.5-2V9L9.5,11z"/>
<path class="st4" d="M9.5,11L5,9l4.5-2L14,9L9.5,11z"/>
</svg>
